ui/StatusQ/src/assets/img/icons/emojiReactions/thumbsUp.svg

<svg fill="none" height="32" viewBox="0 0 31 32" width="31" xmlns="http://www.w3.org/2000/svg" xmlns:xlink="http://www.w3.org/1999/xlink"><linearGradient id="a" gradientUnits="userSpaceOnUse" x1="5.48305" x2="5.48305" y1="13.662" y2="31.6932"><stop offset="0" stop-color="#6bc2ff"/><stop offset="1" stop-color="#2196e8"/></linearGradient><radialGradient id="b" cx="0" cy="0" gradientTransform="matrix(-8.50003746 14.9999332 -17.44912738 -9.88792646 21 12)" gradientUnits="userSpaceOnUse" r="1"><stop offset="0" stop-color="#ffd764"/><stop offset="1" stop-color="#ffb746"/></radialGradient><path d="m10.7476 30.4337c-.1065.8518-.9092 1.4484-1.73228 1.2045-7.61419-2.2563-11.44016-10.5808-7.35214-17.5189.22076-.3747.67233-.5383 1.09047-.4188l1.69169.4834c.58437.1669.88205.8143.74769 1.407-.95706 4.222 2.15238 10.1491 5.19427 12.0573.3775.2368.6264.6563.5711 1.0986z" fill="url(#a)"/><path d="m23 3.5c0-2-1.5-3.5-4-3.5-2 0-3 1.56702-3 3.5 0 1.16436.5 2 .5 3.38995 0 3.11005-1.5 4.60995-3.5 5.60995-2 1.0001-6 1.0001-6 5.5001 0 5.5 5.5 10.9999 12 10.9999s12-4.9999 12-12c0-5.5862-3.4674-8.57192-8.3845-6.1324-.5828.2891-1.3141.0242-1.3222-.6263-.0136-1.08041.3466-2.16081.7067-3.2412.5-1.5 1-2.5 1-3.5z" fill="#ffd764"/><path d="m23 3.5c0-2-1.5-3.5-4-3.5-2 0-3 1.56702-3 3.5 0 1.16436.5 2 .5 3.38995 0 3.11005-1.5 4.60995-3.5 5.60995-2 1.0001-6 1.0001-6 5.5001 0 5.5 5.5 10.9999 12 10.9999s12-4.9999 12-12c0-5.5862-3.4674-8.57192-8.3845-6.1324-.5828.2891-1.3141.0242-1.3222-.6263-.0136-1.08041.3466-2.16081.7067-3.2412.5-1.5 1-2.5 1-3.5z" fill="url(#b)"/></svg>

<svg width="31" height="32" viewBox="0 0 31 32" fill="none" xmlns="http://www.w3.org/2000/svg">
<path d="M10.7476 30.4337C10.6411 31.2855 9.8384 31.8821 9.01532 31.6382C1.40113 29.3819 -2.42484 21.0574 1.66318 14.1193C1.88394 13.7446 2.33551 13.581 2.75365 13.7005L4.44534 14.1839C5.02971 14.3508 5.32739 14.9982 5.19303 15.5909C4.23597 19.8129 7.34541 25.74 10.3873 27.6482C10.7648 27.885 11.0137 28.3045 10.9584 28.7468L10.7476 30.4337Z" fill="url(#paint0_linear)"/>
<path d="M23 3.5C23 1.5 21.5 0 19 0C17 0 16 1.56702 16 3.5C16 4.66436 16.5 5.5 16.5 6.88995C16.5 10 15 11.4999 13 12.4999C11 13.5 7 13.5 7 18C7 23.5 12.5 28.9999 19 28.9999C25.5 28.9999 31 24 31 16.9999C31 11.4137 27.5326 8.42798 22.6155 10.8675C22.0327 11.1566 21.3014 10.8917 21.2933 10.2412C21.2797 9.16079 21.6399 8.08039 22 7C22.5 5.5 23 4.5 23 3.5Z" fill="#FFD764"/>
<path d="M23 3.5C23 1.5 21.5 0 19 0C17 0 16 1.56702 16 3.5C16 4.66436 16.5 5.5 16.5 6.88995C16.5 10 15 11.4999 13 12.4999C11 13.5 7 13.5 7 18C7 23.5 12.5 28.9999 19 28.9999C25.5 28.9999 31 24 31 16.9999C31 11.4137 27.5326 8.42798 22.6155 10.8675C22.0327 11.1566 21.3014 10.8917 21.2933 10.2412C21.2797 9.16079 21.6399 8.08039 22 7C22.5 5.5 23 4.5 23 3.5Z" fill="url(#paint1_radial)"/>
<defs>
<linearGradient id="paint0_linear" x1="5.48305" y1="13.662" x2="5.48305" y2="31.6932" gradientUnits="userSpaceOnUse">
<stop stop-color="#6BC2FF"/>
<stop offset="1" stop-color="#2196E8"/>
</linearGradient>
<radialGradient id="paint1_radial" cx="0" cy="0" r="1" gradientUnits="userSpaceOnUse" gradientTransform="translate(21 12) rotate(119.539) scale(17.2409 20.056)">
<stop stop-color="#FFD764"/>
<stop offset="1" stop-color="#FFB746"/>
</radialGradient>
</defs>
</svg>
